src/icon/entity/cashback-bonus/icon_cashback-bonus_m_white.svg

<svg xmlns="http://www.w3.org/2000/svg" width="24" height="24" viewBox="0 0 24 24"><g fill="none" fill-rule="evenodd" transform="translate(1 1)"><path fill="#FFF" d="M18.8116176,7.60815688 C20.7481231,9.06821416 22,11.3879113 22,14 C22,18.418278 18.418278,22 14,22 C11.3879113,22 9.06821416,20.7481231 7.60815688,18.8116176 C8.21953665,18.9351606 8.8521963,19 9.5,19 C14.7467051,19 19,14.7467051 19,9.5 C19,8.8521963 18.9351606,8.21953665 18.8116176,7.60815688 Z" opacity=".3"/><circle cx="9.5" cy="9.5" r="9" stroke="#FFF"/><path fill="#FFF" fill-rule="nonzero" d="M10.3208333,5.86029724 C10.3791667,6.04175529 11.7283333,10.3111374 11.7683333,10.4390886 C11.78,10.4744496 11.7724999,10.5335398 11.7245833,10.5544773 C11.6770833,10.5754148 10.9758333,10.8904073 10.9370834,10.9071572 C10.8983333,10.9243725 10.8545833,10.8992476 10.8404167,10.854581 C10.8258334,10.8103796 10.5175,9.76536739 10.4845833,9.66114537 L8.55,9.65183985 L8.16333333,10.854581 C8.14958333,10.8973865 8.10791667,10.9262336 8.06666666,10.9071572 L7.27958334,10.5544773 C7.23957317,10.5354121 7.21996847,10.4846721 7.235,10.4390886 C7.285,10.2790333 8.61333333,6.07851218 8.68166666,5.86029724 C8.81291666,5.43689514 8.9825,5 9.50166669,5 C10.02125,5 10.1845834,5.42991598 10.3208333,5.86029724 Z M7,12.6384531 L7,13.6583404 C7,13.7095209 7.03458333,13.75 7.0775,13.75 L11.9233333,13.75 C11.9658333,13.75 12,13.7095209 12,13.6583404 L12,12.6384531 C12,12.5872726 11.9658333,12.5467935 11.9233333,12.5467935 L7.0775,12.5467935 C7.03458333,12.5463283 7,12.5877379 7,12.6384531 Z M8.81666666,8.69802189 L10.1795833,8.69802189 L9.57083337,6.40420609 L9.41208333,6.40420609 L8.81666666,8.69802189 Z"/></g></svg>

<svg xmlns="http://www.w3.org/2000/svg" width="24" height="24" viewBox="0 0 24 24"><g fill="none" fill-rule="evenodd" transform="translate(1 1)"><path fill="#FFF" d="M18.812 7.608A8 8 0 1 1 7.609 18.811 9.5 9.5 0 0 0 18.811 7.609z" opacity=".3"/><circle cx="9.5" cy="9.5" r="9" stroke="#FFF"/><path fill="#FFF" fill-rule="nonzero" d="M10.32 5.86c.06.182 1.408 4.451 1.448 4.58.012.034.004.094-.043.114l-.788.353c-.039.017-.082-.008-.097-.052-.014-.045-.322-1.09-.355-1.194l-1.935-.01-.387 1.204c-.013.042-.055.071-.096.052l-.787-.353c-.04-.019-.06-.07-.045-.115L8.682 5.86c.13-.423.3-.86.82-.86s.683.43.819.86zM7 12.638v1.02c0 .052.035.092.077.092h4.846c.043 0 .077-.04.077-.092v-1.02c0-.05-.034-.091-.077-.091H7.077c-.042 0-.077.04-.077.091zm1.817-3.94h1.363l-.61-2.294h-.158l-.595 2.294z"/></g></svg>
